; generated by PrusaSlicer 2.1.1+win64 on 2020-03-13 at 23:53:47 UTC

; 

; external perimeters extrusion width = 0.45mm
; perimeters extrusion width = 0.45mm
; infill extrusion width = 0.45mm
; solid infill extrusion width = 0.45mm
; top infill extrusion width = 0.40mm
; first layer extrusion width = 0.45mm

M73 P0 R41
M73 Q0 S41
M201 X1000 Y1000 Z1000 E5000 ; sets maximum accelerations, mm/sec^2
M203 X200 Y200 Z12 E120 ; sets maximum feedrates, mm/sec
M204 P1250 R1250 T1250 ; sets acceleration (P, T) and retract acceleration (R), mm/sec^2
M205 X8.00 Y8.00 Z0.40 E4.50 ; sets the jerk limits, mm/sec
M205 S0 T0 ; sets the minimum extruding and travel feed rate, mm/sec
M107
M862.3 P "MK3S" ; printer model check
M862.1 P0.4 ; nozzle diameter check
M115 U3.8.1 ; tell printer latest fw version
G90 ; use absolute coordinates
M83 ; extruder relative mode
M104 S240 ; set extruder temp
M140 S50 ; set bed temp
M190 S50 ; wait for bed temp
M109 S240 ; wait for extruder temp
G28 W ; home all without mesh bed level
G80 ; mesh bed leveling
G1 Y-3.0 F1000.0 ; go outside print area
G92 E0.0
G1 X60.0 E9.0 F1000.0 ; intro line
M73 Q0 S41
M73 P0 R41
G1 X100.0 E12.5 F1000.0 ; intro line
G92 E0.0
M221 100
G21 ; set units to millimeters
G90 ; use absolute coordinates
M83 ; use relative distances for extrusion
M900 K10; Filament gcode
;BEFORE_LAYER_CHANGE
G92 E0.0
;0.2


G1 Z0.200 F11400.000
;AFTER_LAYER_CHANGE
;0.2
G1 X53.905 Y54.097
M204 S1000
G1 F1200
G1 X54.968 Y53.019 E0.05124
G1 X55.694 Y52.520 E0.02982
G1 X56.376 Y52.176 E0.02585
G1 X65.629 Y48.142 E0.34168
G1 X66.522 Y47.853 E0.03176
G1 X67.907 Y47.673 E0.04729
G1 X182.004 Y47.671 E3.86203
G1 X182.946 Y47.747 E0.03200
G1 X184.339 Y48.129 E0.04889
G1 X194.329 Y52.534 E0.36957
G1 X195.553 Y53.480 E0.05235
G1 X196.479 Y54.663 E0.05087
G1 X196.950 Y55.616 E0.03599
G1 X197.329 Y57.093 E0.05161
G1 X197.378 Y152.176 E3.21845
G1 X197.192 Y153.626 E0.04947
G1 X196.851 Y154.622 E0.03563
G1 X196.093 Y155.906 E0.05049
G1 X195.032 Y156.981 E0.05112
G1 X194.306 Y157.480 E0.02982
G1 X193.621 Y157.825 E0.02597
G1 X184.371 Y161.858 E0.34156
G1 X183.478 Y162.147 E0.03176
G1 X182.093 Y162.327 E0.04729
G1 X67.985 Y162.328 E3.86240
G1 X67.054 Y162.253 E0.03163
G1 X65.671 Y161.875 E0.04852
G1 X56.387 Y157.829 E0.34281
G1 X55.052 Y157.050 E0.05230
G1 X53.969 Y155.982 E0.05149
G1 X53.451 Y155.225 E0.03105
G1 X53.051 Y154.387 E0.03142
G1 X52.695 Y153.063 E0.04642
G1 X52.622 Y152.156 E0.03080
G1 X52.622 Y57.853 E3.19203
G1 X52.806 Y56.381 E0.05021
G1 X53.147 Y55.382 E0.03575
G1 X53.874 Y54.148 E0.04846
G1 X57.573 Y56.824 F11400.000
G1 F1200
G1 X57.774 Y56.623 E0.00964
G1 X58.008 Y56.459 E0.00964
G1 X58.266 Y56.339 E0.00964
G1 X58.541 Y56.265 E0.00964
G1 X58.797 Y56.243 E0.00871
G1 X191.203 Y56.243 E4.48176
G1 X191.459 Y56.265 E0.00871
G1 X191.734 Y56.339 E0.00964
G1 X191.992 Y56.459 E0.00964
G1 X192.226 Y56.623 E0.00964
G1 X192.427 Y56.824 E0.00964
G1 X192.591 Y57.058 E0.00964
G1 X192.711 Y57.316 E0.00964
G1 X192.785 Y57.591 E0.00964
G1 X192.807 Y57.847 E0.00871
G1 X192.807 Y152.153 E3.19212
G1 X192.785 Y152.409 E0.00871
G1 X192.711 Y152.684 E0.00964
G1 X192.591 Y152.942 E0.00964
G1 X192.427 Y153.176 E0.00964
G1 X192.226 Y153.377 E0.00964
G1 X191.992 Y153.541 E0.00965
G1 X191.734 Y153.661 E0.00964
G1 X191.459 Y153.735 E0.00964
G1 X191.203 Y153.757 E0.00871
G1 X58.797 Y153.757 E4.48176
G1 X58.541 Y153.735 E0.00871
G1 X58.266 Y153.661 E0.00964
G1 X58.008 Y153.541 E0.00964
G1 X57.774 Y153.377 E0.00965
G1 X57.573 Y153.176 E0.00964
G1 X57.409 Y152.942 E0.00964
G1 X57.289 Y152.684 E0.00965
G1 X57.215 Y152.409 E0.00964
G1 X57.193 Y152.153 E0.00871
G1 X57.193 Y57.847 E3.19212
G1 X57.215 Y57.591 E0.00871
G1 X57.289 Y57.316 E0.00964
G1 X57.409 Y57.058 E0.00964
G1 X57.538 Y56.874 E0.00761
G1 X57.872 Y57.107 F11400.000
G1 F1200
G1 X58.037 Y56.936 E0.00805
G1 X58.212 Y56.813 E0.00723
G1 X58.406 Y56.723 E0.00723
G1 X58.612 Y56.668 E0.00723
G1 X58.815 Y56.650 E0.00690
G1 X191.185 Y56.650 E4.48055
G1 X191.388 Y56.668 E0.00690
G1 X191.594 Y56.723 E0.00723
G1 X191.788 Y56.813 E0.00723
G1 X191.963 Y56.936 E0.00723
G1 X192.114 Y57.087 E0.00723
G1 X192.237 Y57.262 E0.00723
G1 X192.327 Y57.456 E0.00723
G1 X192.382 Y57.662 E0.00723
G1 X192.400 Y57.865 E0.00690
G1 X192.400 Y152.135 E3.19091
M73 Q2 S40
M73 P2 R40
G1 X192.382 Y152.338 E0.00690
G1 X192.327 Y152.544 E0.00723
G1 X192.237 Y152.738 E0.00723
G1 X192.114 Y152.913 E0.00723
G1 X191.963 Y153.064 E0.00723
G1 X191.788 Y153.187 E0.00723
G1 X191.594 Y153.277 E0.00723
G1 X191.388 Y153.332 E0.00723
G1 X191.185 Y153.350 E0.00690
G1 X58.815 Y153.350 E4.48056
G1 X58.612 Y153.332 E0.00690
G1 X58.406 Y153.277 E0.00723
G1 X58.212 Y153.187 E0.00723
G1 X58.037 Y153.064 E0.00723
G1 X57.886 Y152.913 E0.00723
G1 X57.763 Y152.738 E0.00723
G1 X57.673 Y152.544 E0.00723
G1 X57.618 Y152.338 E0.00723
G1 X57.600 Y152.135 E0.00690
G1 X57.600 Y57.865 E3.19092
G1 X57.618 Y57.662 E0.00690
G1 X57.673 Y57.456 E0.00723
G1 X57.763 Y57.262 E0.00723
G1 X57.838 Y57.156 E0.00438
G1 X57.788 Y56.885 F11400.000
G1 X185.408 Y54.507
G1 F1200
G1 X191.154 Y54.507 E0.19451
G1 X191.614 Y54.537 E0.01561
G1 X192.017 Y54.617 E0.01388
G1 X192.466 Y54.766 E0.01600
G1 X192.858 Y54.959 E0.01482
G1 X193.224 Y55.204 E0.01491
G1 X193.556 Y55.494 E0.01491
G1 X193.846 Y55.826 E0.01491
G1 X194.091 Y56.192 E0.01491
G1 X194.285 Y56.587 E0.01491
G1 X194.427 Y57.004 E0.01491
G1 X194.513 Y57.436 E0.01491
G1 X194.543 Y57.896 E0.01561
G1 X194.543 Y152.104 E3.18885
G1 X194.513 Y152.564 E0.01561
G1 X194.427 Y152.996 E0.01491
G1 X194.285 Y153.413 E0.01491
G1 X194.091 Y153.808 E0.01491
G1 X193.846 Y154.174 E0.01491
G1 X193.556 Y154.506 E0.01491
G1 X193.224 Y154.796 E0.01491
G1 X192.858 Y155.041 E0.01491
G1 X192.463 Y155.235 E0.01491
G1 X192.046 Y155.377 E0.01491
G1 X191.614 Y155.463 E0.01491
G1 X191.154 Y155.493 E0.01561
G1 X185.408 Y155.493 E0.19451
G1 X185.338 Y156.564 E0.03635
G1 X185.252 Y156.996 E0.01491
G1 X185.110 Y157.413 E0.01491
G1 X184.916 Y157.808 E0.01491
G1 X184.671 Y158.174 E0.01491
G1 X184.381 Y158.506 E0.01491
G1 X184.049 Y158.796 E0.01491
G1 X183.683 Y159.041 E0.01491
G1 X183.288 Y159.235 E0.01491
G1 X182.871 Y159.377 E0.01491
G1 X182.439 Y159.463 E0.01491
G1 X181.979 Y159.493 E0.01561
G1 X68.021 Y159.493 E3.85736
G1 X67.561 Y159.463 E0.01561
G1 X67.129 Y159.377 E0.01491
G1 X66.712 Y159.235 E0.01491
G1 X66.317 Y159.041 E0.01491
G1 X65.951 Y158.796 E0.01491
G1 X65.619 Y158.506 E0.01491
G1 X65.329 Y158.174 E0.01491
G1 X65.084 Y157.808 E0.01491
G1 X64.890 Y157.413 E0.01491
G1 X64.748 Y156.996 E0.01491
G1 X64.662 Y156.564 E0.01491
G1 X64.592 Y155.493 E0.03635
G1 X58.846 Y155.493 E0.19451
G1 X58.386 Y155.463 E0.01561
G1 X57.954 Y155.377 E0.01491
G1 X57.537 Y155.235 E0.01491
G1 X57.142 Y155.041 E0.01491
G1 X56.776 Y154.796 E0.01491
G1 X56.444 Y154.506 E0.01491
G1 X56.154 Y154.174 E0.01491
G1 X55.909 Y153.808 E0.01491
G1 X55.715 Y153.413 E0.01491
G1 X55.573 Y152.996 E0.01491
G1 X55.487 Y152.564 E0.01491
G1 X55.457 Y152.104 E0.01561
G1 X55.457 Y57.896 E3.18885
G1 X55.487 Y57.436 E0.01561
G1 X55.567 Y57.033 E0.01388
G1 X55.716 Y56.584 E0.01600
G1 X55.909 Y56.192 E0.01482
G1 X56.154 Y55.826 E0.01491
G1 X56.444 Y55.494 E0.01491
G1 X56.776 Y55.204 E0.01491
G1 X57.142 Y54.959 E0.01491
G1 X57.537 Y54.765 E0.01491
G1 X57.954 Y54.623 E0.01491
G1 X58.386 Y54.537 E0.01491
G1 X58.846 Y54.507 E0.01561
G1 X64.592 Y54.507 E0.19451
G1 X64.662 Y53.436 E0.03635
G1 X64.748 Y53.004 E0.01491
G1 X64.890 Y52.587 E0.01491
G1 X65.084 Y52.192 E0.01491
G1 X65.329 Y51.826 E0.01491
G1 X65.619 Y51.494 E0.01491
G1 X65.951 Y51.204 E0.01491
G1 X66.317 Y50.959 E0.01491
G1 X66.712 Y50.765 E0.01491
G1 X67.129 Y50.623 E0.01491
G1 X67.561 Y50.537 E0.01491
G1 X68.021 Y50.507 E0.01561
G1 X181.979 Y50.507 E3.85736
G1 X182.409 Y50.535 E0.01458
G1 X182.874 Y50.624 E0.01600
G1 X183.288 Y50.765 E0.01482
G1 X183.683 Y50.959 E0.01491
G1 X184.024 Y51.187 E0.01388
G1 X184.382 Y51.496 E0.01600
G1 X184.671 Y51.826 E0.01482
G1 X184.916 Y52.192 E0.01491
G1 X185.110 Y52.587 E0.01491
G1 X185.252 Y53.004 E0.01491
G1 X185.338 Y53.436 E0.01491
G1 X185.404 Y54.447 E0.03432
G1 X185.789 Y54.100 F11400.000
G1 F1200
G1 X191.168 Y54.100 E0.18205
G1 X191.668 Y54.133 E0.01696
G1 X192.121 Y54.223 E0.01563
G1 X192.620 Y54.388 E0.01781
G1 X193.062 Y54.606 E0.01668
G1 X193.473 Y54.880 E0.01671
G1 X193.844 Y55.206 E0.01671
G1 X194.170 Y55.577 E0.01671
G1 X194.444 Y55.988 E0.01671
G1 X194.662 Y56.431 E0.01671
G1 X194.821 Y56.898 E0.01671
G1 X194.917 Y57.382 E0.01671
G1 X194.950 Y57.882 E0.01696
G1 X194.950 Y152.118 E3.18975
G1 X194.917 Y152.618 E0.01696
G1 X194.821 Y153.102 E0.01671
G1 X194.662 Y153.569 E0.01671
G1 X194.444 Y154.012 E0.01671
G1 X194.170 Y154.423 E0.01671
G1 X193.844 Y154.794 E0.01671
G1 X193.473 Y155.120 E0.01671
G1 X193.062 Y155.394 E0.01671
G1 X192.619 Y155.612 E0.01671
G1 X192.152 Y155.771 E0.01671
G1 X191.668 Y155.867 E0.01671
G1 X191.168 Y155.900 E0.01696
G1 X185.789 Y155.900 E0.18205
G1 X185.742 Y156.618 E0.02434
G1 X185.646 Y157.102 E0.01671
G1 X185.487 Y157.569 E0.01671
G1 X185.269 Y158.012 E0.01671
G1 X184.995 Y158.423 E0.01671
G1 X184.669 Y158.794 E0.01671
G1 X184.298 Y159.120 E0.01671
G1 X183.887 Y159.394 E0.01671
G1 X183.444 Y159.612 E0.01671
G1 X182.977 Y159.771 E0.01671
G1 X182.493 Y159.867 E0.01671
G1 X181.993 Y159.900 E0.01696
G1 X68.007 Y159.900 E3.85827
G1 X67.507 Y159.867 E0.01696
G1 X67.023 Y159.771 E0.01671
G1 X66.556 Y159.612 E0.01671
G1 X66.113 Y159.394 E0.01671
G1 X65.702 Y159.120 E0.01671
G1 X65.331 Y158.794 E0.01671
G1 X65.005 Y158.423 E0.01671
G1 X64.731 Y158.012 E0.01671
G1 X64.513 Y157.569 E0.01671
G1 X64.354 Y157.102 E0.01671
G1 X64.258 Y156.618 E0.01671
G1 X64.211 Y155.900 E0.02434
G1 X58.832 Y155.900 E0.18205
G1 X58.332 Y155.867 E0.01696
G1 X57.848 Y155.771 E0.01671
G1 X57.381 Y155.612 E0.01671
G1 X56.938 Y155.394 E0.01671
G1 X56.527 Y155.120 E0.01671
G1 X56.156 Y154.794 E0.01671
G1 X55.830 Y154.423 E0.01671
G1 X55.556 Y154.012 E0.01671
G1 X55.338 Y153.569 E0.01671
G1 X55.179 Y153.102 E0.01671
G1 X55.083 Y152.618 E0.01671
G1 X55.050 Y152.118 E0.01696
G1 X55.050 Y57.882 E3.18975
G1 X55.083 Y57.382 E0.01696
G1 X55.173 Y56.929 E0.01563
G1 X55.338 Y56.430 E0.01781
G1 X55.556 Y55.988 E0.01668
G1 X55.830 Y55.577 E0.01671
G1 X56.156 Y55.206 E0.01671
G1 X56.527 Y54.880 E0.01671
G1 X56.938 Y54.606 E0.01671
G1 X57.381 Y54.388 E0.01671
G1 X57.848 Y54.229 E0.01671
G1 X58.332 Y54.133 E0.01671
G1 X58.832 Y54.100 E0.01696
G1 X64.211 Y54.100 E0.18205
G1 X64.258 Y53.382 E0.02434
G1 X64.354 Y52.898 E0.01671
G1 X64.513 Y52.431 E0.01671
G1 X64.731 Y51.988 E0.01671
G1 X65.005 Y51.577 E0.01671
G1 X65.331 Y51.206 E0.01671
G1 X65.702 Y50.880 E0.01671
G1 X66.113 Y50.606 E0.01671
G1 X66.556 Y50.388 E0.01671
G1 X67.023 Y50.229 E0.01671
G1 X67.507 Y50.133 E0.01671
G1 X68.007 Y50.100 E0.01696
G1 X181.993 Y50.100 E3.85827
M73 Q5 S39
M73 P5 R39
G1 X182.461 Y50.131 E0.01588
G1 X182.978 Y50.229 E0.01781
G1 X183.444 Y50.388 E0.01668
G1 X183.887 Y50.606 E0.01671
G1 X184.271 Y50.863 E0.01563
G1 X184.670 Y51.207 E0.01781
G1 X184.995 Y51.577 E0.01668
G1 X185.269 Y51.988 E0.01671
G1 X185.487 Y52.431 E0.01671
G1 X185.646 Y52.898 E0.01671
G1 X185.742 Y53.382 E0.01671
G1 X185.785 Y54.040 E0.02231
G1 X185.805 Y54.500 F11400.000
G1 X186.509 Y54.527
G1 F1200
G1 X190.159 Y56.039 E0.13403
G1 X189.093 Y56.039 E0.03616
G1 X185.885 Y54.711 E0.11779
G1 X185.217 Y54.711 E0.02265
G1 X185.199 Y54.426 E0.00967
G1 X176.228 Y50.711 E0.32937
G1 X177.294 Y50.711 E0.03616
G1 X185.169 Y53.972 E0.28913
G1 X185.139 Y53.518 E0.01543
G1 X178.360 Y50.711 E0.24890
G1 X179.426 Y50.711 E0.03616
G1 X185.049 Y53.040 E0.20645
G1 X184.922 Y52.665 E0.01343
G1 X184.848 Y52.515 E0.00568
G1 X180.493 Y50.711 E0.15991
G1 X181.559 Y50.711 E0.03616
G1 X184.798 Y52.052 E0.11894
G1 X184.194 Y51.361 F11400.000
G1 F1200
G1 X182.221 Y50.543 E0.07245
G1 X188.469 Y56.223 F11400.000
G1 F1200
G1 X175.162 Y50.711 E0.48860
G1 X174.096 Y50.711 E0.03616
G1 X186.961 Y56.039 E0.47236
G1 X185.895 Y56.039 E0.03616
G1 X173.030 Y50.711 E0.47236
G1 X171.964 Y50.711 E0.03616
G1 X184.829 Y56.039 E0.47236
G1 X183.763 Y56.039 E0.03616
G1 X170.898 Y50.711 E0.47236
G1 X169.832 Y50.711 E0.03616
G1 X182.697 Y56.039 E0.47236
G1 X181.631 Y56.039 E0.03616
G1 X168.766 Y50.711 E0.47236
G1 X167.700 Y50.711 E0.03616
G1 X180.565 Y56.039 E0.47236
G1 X179.499 Y56.039 E0.03616
G1 X166.634 Y50.711 E0.47236
G1 X165.568 Y50.711 E0.03616
G1 X178.433 Y56.039 E0.47236
G1 X177.367 Y56.039 E0.03616
G1 X164.502 Y50.711 E0.47236
G1 X163.436 Y50.711 E0.03616
G1 X176.301 Y56.039 E0.47236
G1 X175.235 Y56.039 E0.03616
G1 X162.370 Y50.711 E0.47236
G1 X161.304 Y50.711 E0.03616
G1 X174.169 Y56.039 E0.47236
G1 X173.102 Y56.039 E0.03616
G1 X160.238 Y50.711 E0.47236
G1 X159.172 Y50.711 E0.03616
G1 X172.036 Y56.039 E0.47236
G1 X170.970 Y56.039 E0.03616
G1 X158.106 Y50.711 E0.47236
G1 X157.039 Y50.711 E0.03616
G1 X169.904 Y56.039 E0.47236
G1 X168.838 Y56.039 E0.03616
G1 X155.973 Y50.711 E0.47236
G1 X154.907 Y50.711 E0.03616
G1 X167.772 Y56.039 E0.47236
G1 X166.706 Y56.039 E0.03616
G1 X153.841 Y50.711 E0.47236
G1 X152.775 Y50.711 E0.03616
G1 X165.640 Y56.039 E0.47236
G1 X164.574 Y56.039 E0.03616
G1 X151.709 Y50.711 E0.47236
G1 X150.643 Y50.711 E0.03616
G1 X163.508 Y56.039 E0.47236
G1 X162.442 Y56.039 E0.03616
G1 X149.577 Y50.711 E0.47236
G1 X148.511 Y50.711 E0.03616
G1 X161.376 Y56.039 E0.47236
G1 X160.310 Y56.039 E0.03616
G1 X147.445 Y50.711 E0.47236
G1 X146.379 Y50.711 E0.03616
G1 X159.244 Y56.039 E0.47236
G1 X158.178 Y56.039 E0.03616
G1 X145.313 Y50.711 E0.47236
G1 X144.247 Y50.711 E0.03616
G1 X157.112 Y56.039 E0.47236
G1 X156.046 Y56.039 E0.03616
G1 X143.181 Y50.711 E0.47236
G1 X142.115 Y50.711 E0.03616
G1 X154.980 Y56.039 E0.47236
G1 X153.914 Y56.039 E0.03616
G1 X141.049 Y50.711 E0.47236
G1 X139.983 Y50.711 E0.03616
G1 X152.848 Y56.039 E0.47236
G1 X151.782 Y56.039 E0.03616
G1 X138.917 Y50.711 E0.47236
G1 X137.851 Y50.711 E0.03616
G1 X150.715 Y56.039 E0.47236
G1 X149.649 Y56.039 E0.03616
G1 X136.785 Y50.711 E0.47236
G1 X135.719 Y50.711 E0.03616
G1 X148.583 Y56.039 E0.47236
G1 X147.517 Y56.039 E0.03616
G1 X134.652 Y50.711 E0.47236
G1 X133.586 Y50.711 E0.03616
G1 X146.451 Y56.039 E0.47236
G1 X145.385 Y56.039 E0.03616
G1 X132.520 Y50.711 E0.47236
G1 X131.454 Y50.711 E0.03616
G1 X144.319 Y56.039 E0.47236
G1 X143.253 Y56.039 E0.03616
G1 X130.388 Y50.711 E0.47236
G1 X129.322 Y50.711 E0.03616
G1 X142.187 Y56.039 E0.47236
G1 X141.121 Y56.039 E0.03616
G1 X128.256 Y50.711 E0.47236
G1 X127.190 Y50.711 E0.03616
G1 X140.055 Y56.039 E0.47236
G1 X138.989 Y56.039 E0.03616
G1 X126.124 Y50.711 E0.47236
G1 X125.058 Y50.711 E0.03616
G1 X137.923 Y56.039 E0.47236
G1 X136.857 Y56.039 E0.03616
G1 X123.992 Y50.711 E0.47236
G1 X122.926 Y50.711 E0.03616
G1 X135.791 Y56.039 E0.47236
G1 X134.725 Y56.039 E0.03616
G1 X121.860 Y50.711 E0.47236
G1 X120.794 Y50.711 E0.03616
G1 X133.659 Y56.039 E0.47236
G1 X132.593 Y56.039 E0.03616
G1 X119.728 Y50.711 E0.47236
G1 X118.662 Y50.711 E0.03616
G1 X131.527 Y56.039 E0.47236
G1 X130.461 Y56.039 E0.03616
G1 X117.596 Y50.711 E0.47236
G1 X116.530 Y50.711 E0.03616
G1 X129.395 Y56.039 E0.47236
G1 X128.328 Y56.039 E0.03616
G1 X115.464 Y50.711 E0.47236
G1 X114.398 Y50.711 E0.03616
G1 X127.262 Y56.039 E0.47236
G1 X126.196 Y56.039 E0.03616
G1 X113.331 Y50.711 E0.47236
G1 X112.265 Y50.711 E0.03616
G1 X125.130 Y56.039 E0.47236
G1 X124.064 Y56.039 E0.03616
G1 X111.199 Y50.711 E0.47236
G1 X110.133 Y50.711 E0.03616
G1 X122.998 Y56.039 E0.47236
G1 X121.932 Y56.039 E0.03616
G1 X109.067 Y50.711 E0.47236
G1 X108.001 Y50.711 E0.03616
G1 X120.866 Y56.039 E0.47236
G1 X119.800 Y56.039 E0.03616
G1 X106.935 Y50.711 E0.47236
G1 X105.869 Y50.711 E0.03616
G1 X118.734 Y56.039 E0.47236
G1 X117.668 Y56.039 E0.03616
G1 X104.803 Y50.711 E0.47236
G1 X103.737 Y50.711 E0.03616
G1 X116.602 Y56.039 E0.47236
G1 X115.536 Y56.039 E0.03616
G1 X102.671 Y50.711 E0.47236
G1 X101.605 Y50.711 E0.03616
G1 X114.470 Y56.039 E0.47236
G1 X113.404 Y56.039 E0.03616
G1 X100.539 Y50.711 E0.47236
G1 X99.473 Y50.711 E0.03616
G1 X112.338 Y56.039 E0.47236
G1 X111.272 Y56.039 E0.03616
G1 X98.407 Y50.711 E0.47236
